X: 461
T: Sibao langong
L: 1/16
M: 2/4
K: Bb
c2 c dc4 [I:setbarnb 1]| 
d f d cB4 | 
B c d f c d c B | 
G2> F2D4 | 
F2> G2 B d c B | 
G B D F G2 G2 | 
G2 d2 c d c B | 
G B F G B2 A G | 
F2 E DC4 |]

@@@ Tune index: 9335
